miniprogram/assets/figma/stat-coins.svg

<svg width="16" height="16" viewBox="0 0 16 16" fill="none" xmlns="http://www.w3.org/2000/svg">
<path fill-rule="evenodd" clip-rule="evenodd" d="M2.4445 1.72326C1.61646 2.16913 1 2.84095 1 3.66667V9L1.00006 9.01544L1.00006 11.6667C1.00006 12.5569 1.60863 13.2316 2.44975 13.6656C3.29422 14.1013 4.43384 14.3333 5.66673 14.3333C6.10265 14.3333 6.52509 14.2965 6.92595 14.2275C6.98792 14.2638 7.05144 14.2988 7.11635 14.3322C7.96082 14.768 9.10044 15 10.3333 15C11.5662 15 12.7058 14.768 13.5503 14.3322C14.3914 13.8982 15 13.2236 15 12.3333L14.9997 9.69915C14.9999 9.68835 15 9.67752 15 9.66667C15 8.84095 14.3835 8.16913 13.5555 7.72326C12.7139 7.27008 11.5741 7 10.3333 7C10.3332 7 10.3334 7 10.3333 7L10.3332 6.35595L10.3333 6.33333L10.3333 5.66673L10.3333 5.65983L10.333 3.69915C10.3332 3.68835 10.3333 3.67752 10.3333 3.66667C10.3333 2.84095 9.71687 2.16913 8.88883 1.72326C8.04721 1.27008 6.9074 1 5.66667 1C4.42593 1 3.28613 1.27008 2.4445 1.72326ZM2.76057 2.31024C2.02026 2.70887 1.66667 3.20372 1.66667 3.66667C1.66694 4.12946 2.02054 4.62462 2.76057 5.02309C3.48731 5.41441 4.51417 5.66667 5.66667 5.66667C6.81916 5.66667 7.84603 5.41441 8.57276 5.02309C9.30022 4.63138 9.65427 4.14677 9.66635 3.69081L9.66634 3.66707C9.66634 3.66281 9.66642 3.65822 9.66658 3.654C9.66019 3.19471 9.30633 2.70524 8.57276 2.31024C7.84603 1.91892 6.81916 1.66667 5.66667 1.66667C4.51417 1.66667 3.48731 1.91892 2.76057 2.31024ZM9.45471 7.04605C9.59207 6.821 9.66308 6.58779 9.66653 6.35146L9.66654 5.05877C9.44524 5.26841 9.18013 5.45322 8.88883 5.61007C8.04721 6.06325 6.9074 6.33333 5.66667 6.33333C4.42593 6.33333 3.28613 6.06325 2.4445 5.61007C2.15315 5.45319 1.88799 5.26833 1.66667 5.05864L1.66667 6.33333C1.66693 6.87227 2.02841 7.36467 2.75539 7.7398C3.47928 8.11334 4.50632 8.3333 5.66667 8.3333C5.88314 8.3333 6.09552 8.32337 6.30256 8.30428C6.52991 8.08236 6.80619 7.88748 7.11117 7.72326C7.74951 7.37954 8.55937 7.14115 9.45471 7.04605ZM5.80802 8.99868C5.76107 8.99954 5.71395 8.99997 5.66667 8.99997C4.43377 8.99997 3.29415 8.768 2.44968 8.33224C2.15466 8.18001 1.88824 7.99818 1.66667 7.78782L1.66667 8.66022L1.66673 8.66667L1.66673 9.01213C1.67211 9.54654 2.03361 10.034 2.75539 10.4065C3.47928 10.78 4.50632 11 5.66667 11L5.66667 9.66667C5.66667 9.4309 5.71693 9.20767 5.80802 8.99868ZM6.33333 11.3279C6.33334 11.3266 6.33334 11.3254 6.33333 11.3241V11.0586C6.55466 11.2683 6.81982 11.4532 7.11117 11.6101C7.95279 12.0633 9.0926 12.3333 10.3333 12.3333C11.5741 12.3333 12.7139 12.0633 13.5555 11.6101C13.8468 11.4532 14.1119 11.2684 14.3332 11.0588L14.3333 12.3333C14.3333 12.8725 13.9719 13.3645 13.2446 13.7398C12.5207 14.1133 11.4937 14.3333 10.3333 14.3333C9.17299 14.3333 8.14594 14.1133 7.42206 13.7398C6.69482 13.3645 6.33333 12.8725 6.33333 12.3333V11.3279ZM5.66667 11.6666C4.43377 11.6666 3.29415 11.4347 2.44968 10.9989C2.15469 10.8467 1.88829 10.6649 1.66673 10.4545L1.66673 11.6667C1.66673 12.2058 2.02821 12.6979 2.75545 13.0731C3.47934 13.4467 4.50638 13.6666 5.66673 13.6666C5.84603 13.6666 6.02248 13.6598 6.19539 13.6466C5.86649 13.2828 5.66667 12.8435 5.66667 12.3333L5.66667 11.6666ZM7.42724 8.31024C6.68692 8.70887 6.33333 9.20372 6.33333 9.66667C6.33361 10.1295 6.68721 10.6246 7.42724 11.0231C8.15397 11.4144 9.18084 11.6667 10.3333 11.6667C11.4858 11.6667 12.5127 11.4144 13.2394 11.0231C13.9669 10.6314 14.3209 10.1468 14.333 9.69081L14.333 9.66707C14.333 9.66282 14.3331 9.65822 14.3332 9.654C14.3269 9.19471 13.973 8.70524 13.2394 8.31024C12.5127 7.91892 11.4858 7.66667 10.3333 7.66667C9.18084 7.66667 8.15397 7.91892 7.42724 8.31024Z" fill="#353566"/>
</svg>

<svg xmlns="http://www.w3.org/2000/svg" width="16" height="16" fill="none" viewBox="0 0 16 16"><path fill="#353566" fill-rule="evenodd" d="M2.445 1.723C1.616 2.17 1 2.841 1 3.667v8c0 .89.609 1.565 1.45 1.999.844.435 1.984.667 3.217.667q.656-.001 1.259-.106.093.056.19.105c.845.436 1.984.668 3.217.668s2.373-.232 3.217-.668c.841-.434 1.45-1.108 1.45-1.999V9.667c0-.826-.617-1.498-1.444-1.944C12.714 7.27 11.574 7 10.333 7V3.667c0-.826-.616-1.498-1.444-1.944C8.047 1.27 6.907 1 5.667 1c-1.241 0-2.38.27-3.222.723m.316.587c-.74.399-1.094.894-1.094 1.357s.354.958 1.094 1.356c.726.391 1.753.644 2.906.644 1.152 0 2.179-.253 2.906-.644.727-.392 1.081-.876 1.093-1.332v-.037c-.006-.46-.36-.949-1.093-1.344-.727-.391-1.754-.643-2.906-.643s-2.18.252-2.906.643m6.694 4.736q.206-.338.212-.695V5.06a3.6 3.6 0 0 1-.778.551c-.842.453-1.982.723-3.222.723-1.241 0-2.38-.27-3.222-.723a3.6 3.6 0 0 1-.778-.551v1.274c0 .54.361 1.032 1.088 1.407.724.373 1.751.593 2.912.593q.325 0 .636-.029c.227-.222.503-.417.808-.58.639-.344 1.448-.583 2.344-.678M5.808 9h-.141c-1.233 0-2.373-.232-3.217-.668a3.4 3.4 0 0 1-.783-.544v1.224c.005.535.367 1.022 1.088 1.394.724.374 1.751.594 2.912.594V9.667c0-.236.05-.46.141-.668m.525 2.329v-.269c.222.21.487.394.778.551.842.453 1.982.723 3.222.723 1.241 0 2.38-.27 3.223-.723.29-.157.556-.342.777-.551v1.274c0 .54-.361 1.031-1.088 1.407-.724.373-1.751.593-2.912.593-1.16 0-2.187-.22-2.91-.593-.728-.376-1.09-.867-1.09-1.407zm-.666.339c-1.233 0-2.373-.232-3.217-.668a3.4 3.4 0 0 1-.783-.545v1.213c0 .539.361 1.03 1.088 1.406.724.374 1.751.594 2.912.594q.269 0 .528-.02c-.329-.364-.528-.803-.528-1.314zm1.76-3.357c-.74.399-1.094.894-1.094 1.357s.354.958 1.094 1.356c.727.391 1.754.644 2.906.644s2.18-.253 2.906-.644c.728-.392 1.082-.876 1.094-1.332v-.037c-.006-.46-.36-.949-1.094-1.344-.726-.391-1.753-.643-2.906-.643-1.152 0-2.179.252-2.906.643" clip-rule="evenodd"/></svg>
